!!!!SEGMENT: pl-sa--361-a-viii-1_anonim--ojcze-nasz-pamietasz.krn
!!!cenid: 17xx:1755
!!!COM: Anonim
!!!COM-rismID: pe30004985
!!!CDT:
!!!CNT:
!!!OTL: Ojcze nasz pamiętasz
!!!PDT:
!!!AGN: Sacred
!!!YEC: Copyright 2022 Narodowy Instytut Fryderyka Chopina (https://polishscores.org)
!!!YEM: License CC-BY-4.0 (https://creativecommons.org/licenses/by/4.0)
!!!SMS-siglum: PL-SA
!!!SMS-shelfmark: 361/A VIII 1
!!!SMS-shelfwork: W
!!!SMS-variant:
!!!SMS-altvar:
!!!NIFC-rismSourceID: 1001039133
!!!NIFC-rismChildID: 1001039133
!!!NIFC-islandoraID: none
!!!URL-pdf-islandora:
!!!URL-scan: https://bc.bdsandomierz.pl/dlibra/publication/1665/edition/1633/content @EN{Scan in the Sandomierz Diocese Digital Library} @PL{Skany w portalu Cyfrowa Biblioteka Diecezjalna w Sandomierzu}
!!!IIIF:
!!!ONB-nifc:
!!!AIN: 1 alto 1 bass 1 organ 1 soprn 2 violn
!!!key: F
**kern	**fba	**kern	**kern	**kern	**text	**kern	**text	**kern	**text	**text
*part6	*	*part5	*part4	*part3	*	*part2	*	*part1	*	*
*staff6	*	*staff5	*staff4	*staff3	*	*staff2	*	*staff1	*	*
*I"Organo.	*	*I"Violino 2do.	*I"Violino Primo.	*I"Baſso	*	*I"Alto.	*	*I"Canto.	*	*
*I'org	*	*I'vl 2	*I'vl 1	*I'B	*	*I'A	*	*I'S	*	*
*Iorgan	*	*Ivioln	*Ivioln	*Ibass	*	*Ialto	*	*Isoprn	*	*
*ICklav	*	*ICstr	*ICstr	*ICvox	*	*ICvox	*	*ICvox	*	*
*IGcont	*	*	*	*IGcoro	*	*IGcoro	*	*IGcoro	*	*
*clefF4	*	*clefG2	*clefG2	*clefF4	*	*clefC3	*	*clefC1	*	*
*k[b-]	*	*k[b-]	*k[b-]	*k[b-]	*	*k[b-]	*	*k[b-]	*	*
*F:	*	*F:	*F:	*F:	*	*F:	*	*F:	*	*
*M6/8	*	*M6/8	*M6/8	*M6/8	*	*M6/8	*	*M6/8	*	*
=1	=1	=1	=1	=1	=1	=1	=1	=1	=1	=1
*all\right	*	*all\right	*all\right	*all\right	*	*all\right	*	*all\right	*	*
!	!	!	!LO:TX:b:i:t=Pastorella.	!	!	!	!	!	!	!
!	!	!LO:TX:a:i:t=Moderato	!LO:TX:a:i:t=Moderato	!LO:TX:a:i:t=Moderato.	!	!LO:TX:a:i:t=Moderato.	!	!LO:TX:a:i:t=Moderato.	!	!
4F\	.	4f/	8a/L	0.r	.	0.r	.	0.r	.	.
.	.	.	16a/L	.	.	.	.	.	.	.
.	.	.	16f/	.	.	.	.	.	.	.
8r	.	8c/	16g/	.	.	.	.	.	.	.
.	.	.	16e/JJ	.	.	.	.	.	.	.
8r	.	4f/	4f/	.	.	.	.	.	.	.
!LO:TX:t=P:problem=mixed beam	!	!	!	!	!	!	!	!	!	!
8F\L	.	.	.	.	.	.	.	.	.	.
8FF/J	.	8r	8r	.	.	.	.	.	.	.
=2	=2	=2	=2	=2	=2	=2	=2	=2	=2	=2
4F\	.	8a/L	8cc\L	.	.	.	.	.	.	.
.	.	16a/L	16cc\L	.	.	.	.	.	.	.
.	.	16f/	16a\	.	.	.	.	.	.	.
8r	.	16g/	16b-\	.	.	.	.	.	.	.
.	.	16e/JJ	16g\JJ	.	.	.	.	.	.	.
8r	.	4f/	4a/	.	.	.	.	.	.	.
!LO:TX:t=P:problem=mixed beam	!	!	!	!	!	!	!	!	!	!
8F\L	.	.	.	.	.	.	.	.	.	.
8FF/J	.	8r	8r	.	.	.	.	.	.	.
=3	=3	=3	=3	=3	=3	=3	=3	=3	=3	=3
4.C/	.	8a/L	8cc\L	.	.	.	.	.	.	.
.	.	8f/	8a\	.	.	.	.	.	.	.
.	.	8a/J	8cc\J	.	.	.	.	.	.	.
4.C/	.	8g/L	8b-\L	.	.	.	.	.	.	.
.	.	8e/	8g\	.	.	.	.	.	.	.
.	.	8g/J	8b-\J	.	.	.	.	.	.	.
=4	=4	=4	=4	=4	=4	=4	=4	=4	=4	=4
4.C/	.	8f/L	8a/L	.	.	.	.	.	.	.
.	.	8c/	8f/	.	.	.	.	.	.	.
.	.	8f/J	8a/J	.	.	.	.	.	.	.
!LO:TX:t=P:problem=mixed beam	!	!	!	!	!	!	!	!	!	!
8C/L	.	4e/	4g/	.	.	.	.	.	.	.
8c\	.	.	.	.	.	.	.	.	.	.
8C/J	.	8r	8r	.	.	.	.	.	.	.
!	!	!LO:LB:g=original	!LO:LB:g=original	!	!	!	!	!	!	!
=5	=5	=5	=5	=5	=5	=5	=5	=5	=5	=5
4.C/	.	16a/LL	16cc\LL	0.r	.	0.r	.	0.r	.	.
.	.	16f/	16a\	.	.	.	.	.	.	.
.	.	16cc/	16ff\	.	.	.	.	.	.	.
.	.	16a/	16cc\	.	.	.	.	.	.	.
.	.	16ff/	16aa\	.	.	.	.	.	.	.
.	.	16cc/JJ	16cc\JJ	.	.	.	.	.	.	.
4.C/	.	16g/LL	16b-\LL	.	.	.	.	.	.	.
.	.	16e/	16g\	.	.	.	.	.	.	.
.	.	16b-/	16ee\	.	.	.	.	.	.	.
.	.	16g/	16b-\	.	.	.	.	.	.	.
.	.	16ee/	16gg\	.	.	.	.	.	.	.
.	.	16g/JJ	16b-\JJ	.	.	.	.	.	.	.
=6	=6	=6	=6	=6	=6	=6	=6	=6	=6	=6
4.C/	.	16f/LL	16a\LL	.	.	.	.	.	.	.
.	.	16c/	16f\	.	.	.	.	.	.	.
.	.	16a/	16cc\	.	.	.	.	.	.	.
.	.	16f/	16a\	.	.	.	.	.	.	.
.	.	16cc/	16ff\	.	.	.	.	.	.	.
.	.	16a/JJ	16cc\JJ	.	.	.	.	.	.	.
!LO:TX:t=P:problem=mixed beam	!	!	!	!	!	!	!	!	!	!
8C/L	.	4e/	4g/	.	.	.	.	.	.	.
8c\	.	.	.	.	.	.	.	.	.	.
8C/J	.	8r	8r	.	.	.	.	.	.	.
=7	=7	=7	=7	=7	=7	=7	=7	=7	=7	=7
4C/	.	8gg\L	8bb-\L	.	.	.	.	.	.	.
.	.	16gg\L	16bb-\L	.	.	.	.	.	.	.
.	.	16ee\	16gg\	.	.	.	.	.	.	.
8r	.	16ff\	16aa\	.	.	.	.	.	.	.
.	.	16dd\JJ	16ff\JJ	.	.	.	.	.	.	.
8r	.	4ee\	4gg\	.	.	.	.	.	.	.
!LO:TX:t=P:problem=mixed beam	!	!	!	!	!	!	!	!	!	!
8c\L	.	.	.	.	.	.	.	.	.	.
8C/J	.	8r	8r	.	.	.	.	.	.	.
=8	=8	=8	=8	=8	=8	=8	=8	=8	=8	=8
4C/	.	8g/L	8b-/L	.	.	.	.	.	.	.
.	.	16g/L	16b-/L	.	.	.	.	.	.	.
.	.	16e/	16g/	.	.	.	.	.	.	.
8r	.	16f/	16a/	.	.	.	.	.	.	.
.	.	16d/JJ	16f/JJ	.	.	.	.	.	.	.
8r	.	4e/	4g/	.	.	.	.	.	.	.
!LO:TX:t=P:problem=mixed beam	!	!	!	!	!	!	!	!	!	!
8c\L	.	.	.	.	.	.	.	.	.	.
8C/J	.	8r	8r	.	.	.	.	.	.	.
!	!	!LO:LB:g=original	!LO:LB:g=original	!	!	!	!	!	!	!
=9	=9	=9	=9	=9	=9	=9	=9	=9	=9	=9
8C\L|	.	8c/L	8c/L	0.r	.	0.r	.	0.r	.	.
8D\|	.	8d/	8d/	.	.	.	.	.	.	.
8E\J|	.	8e/J	8e/J	.	.	.	.	.	.	.
8F\L|	.	8f/L	8f/L	.	.	.	.	.	.	.
8G\|	.	8g/	8g/	.	.	.	.	.	.	.
8A\J|	.	8a/J	8a/J	.	.	.	.	.	.	.
=10	=10	=10	=10	=10	=10	=10	=10	=10	=10	=10
8C\L|	.	8c/L	8c/L	.	.	.	.	.	.	.
8D\|	.	8d/	8d/	.	.	.	.	.	.	.
8E\J|	.	8e/J	8e/J	.	.	.	.	.	.	.
!	!	!	!LO:TX:t=P:problem=mixed beam	!	!	!	!	!	!	!
4.F\	.	8.f/L	8.f/L	.	.	.	.	.	.	.
.	.	16f/L	16ff\L	.	.	.	.	.	.	.
.	.	16e/	16ee\	.	.	.	.	.	.	.
.	.	16d/JJ	16dd\JJ	.	.	.	.	.	.	.
=11	=11	=11	=11	=11	=11	=11	=11	=11	=11	=11
8C\L|	.	8c/L	8cc\L	.	.	.	.	.	.	.
8D\|	.	8d/	8dd\	.	.	.	.	.	.	.
8E\J|	.	8e/J	8ee\J	.	.	.	.	.	.	.
8F\L|	.	8f/L	8ff\L	.	.	.	.	.	.	.
8G\|	.	8g/	8gg\	.	.	.	.	.	.	.
8A\J|	.	8a/J	8aa\J	.	.	.	.	.	.	.
=12	=12	=12	=12	=12	=12	=12	=12	=12	=12	=12
8AA/L	.	8A/L	8a\L	.	.	.	.	.	.	.
8BB-/	.	8B-/	8b-\	.	.	.	.	.	.	.
8C/J	.	8c/J	8cc\J	.	.	.	.	.	.	.
!	!	!	!LO:TX:t=P:problem=mixed beam	!	!	!	!	!	!	!
4.FF/	.	4f/	8f/L	.	.	.	.	.	.	.
.	.	.	16aa\L	.	.	.	.	.	.	.
.	.	.	16ff\	.	.	.	.	.	.	.
.	.	8ee\	16gg\	.	.	.	.	.	.	.
.	.	.	16cc\JJ	.	.	.	.	.	.	.
!	!	!LO:LB:g=original	!	!	!	!	!	!	!	!
=13	=13	=13	=13	=13	=13	=13	=13	=13	=13	=13
4.FF/	.	8ff\L	8ff\L	1.r	.	1.r	.	1.r	.	.
.	.	16aa\L	16ccc\L	.	.	.	.	.	.	.
.	.	16ff\	16aa\	.	.	.	.	.	.	.
.	.	16gg\	16bb-\	.	.	.	.	.	.	.
.	.	16ee\JJ	16gg\JJ	.	.	.	.	.	.	.
!	!	!	!LO:LB:g=original	!	!	!	!	!	!	!
4.FF/	.	8ff\L	8aa\L	.	.	.	.	.	.	.
.	.	16cc\L	16aa\L	.	.	.	.	.	.	.
.	.	16b-\	16ff\	.	.	.	.	.	.	.
.	.	16cc\	16gg\	.	.	.	.	.	.	.
.	.	16g\JJ	16ee\JJ	.	.	.	.	.	.	.
=14	=14	=14	=14	=14	=14	=14	=14	=14	=14	=14
4.FF/	.	8a/L	8ff\L	.	.	.	.	.	.	.
.	.	16a/L	16cc\L	.	.	.	.	.	.	.
.	.	16f/	16a\	.	.	.	.	.	.	.
.	.	16g/	16b-\	.	.	.	.	.	.	.
.	.	16e/JJ	16g\JJ	.	.	.	.	.	.	.
4FF/	.	4f/	4a/	.	.	.	.	.	.	.
8r	.	8r	8r	.	.	.	.	.	.	.
=15	=15	=15	=15	=15	=15	=15	=15	=15	=15	=15
4F\	.	4f/	4f/	4r	.	4f\	Oy-	4a\	Oy-	.
8r	.	8r	8r	8r	.	8e\	-cze	8g\	-cze	.
!	!	!LO:N:vis=2	!LO:N:vis=2	!	!	!	!	!	!	!
4r	.	4.r	4.r	8r	.	4f\	naſz	4f/	naſz	.
.	.	.	.	8F\	Co	.	.	.	.	.
8r	.	.	.	8FF/	chceſz	8r	.	8r	.	.
=16	=16	=16	=16	=16	=16	=16	=16	=16	=16	=16
4F\	.	4f/	4f/	4r	.	4a\	pa-	4cc\	pa-	.
8r	.	8r	8r	8r	.	8g\	-mię-	8b-\	-mię-	.
!	!	!LO:N:vis=2	!LO:N:vis=2	!	!	!	!	!	!	!
4r	.	4.r	4.r	8r	.	4f\	-taſz	4a\	-taſz	.
.	.	.	.	8F\	po-	.	.	.	.	.
8r	.	.	.	8FF/	-wiedz	8r	.	8r	.	.
=17	=17	=17	=17	=17	=17	=17	=17	=17	=17	=17
4.C/	.	4.c/	4.c/	2.r	.	8a\L	zes-	8cc\L	zes-	.
.	.	.	.	.	.	8f\J	.	8a\J	.	.
.	.	.	.	.	.	8a\	-my	8cc\	-my	.
!	!	!	!	!	!	!LO:LB:g=original	!	!	!	!
4.C/	.	4.c/	4.c/	.	.	8g\L	da-	8b-\L	da-	.
.	.	.	.	.	.	8e\J	.	8g\J	.	.
.	.	.	.	.	.	8g\	-ry	8b-\	-ry	.
!	!	!	!	!	!	!	!	!LO:LB:g=original	!	!
=18	=18	=18	=18	=18	=18	=18	=18	=18	=18	=18
!	!	!LO:TX:t=P:problem=repetycja taktu 17	!	!	!	!	!	!	!	!
4.C/	.	4.c/yy	4.c/	4r	.	8f\	o-	8a\	o-	.
.	.	.	.	.	.	8c\	-bie-	8f\	-bie-	.
.	.	.	.	8r	.	8f\	-ca-	8a\	-ca-	.
!	!	!	!	!LO:LB:g=original	!	!	!	!	!	!
4.C/	.	4.c/yy	4.c/	8r	.	8e\	-li	4g\	-li	.
.	.	.	.	8c\	Kie-	8r	.	.	.	.
.	.	.	.	8C/	-dy	8r	.	8r	.	.
!	!	!LO:LB:g=original	!	!	!	!	!	!	!	!
=19	=19	=19	=19	=19	=19	=19	=19	=19	=19	=19
!	!	!	!	!LO:TX:a:t=1	!	!	!	!	!	!
4.C/	.	4.c/	4.c/	2.r	.	8a\	gdys-	8cc\	gdy	.
.	.	.	.	.	.	8f\	-ma	8a\	my	.
.	.	.	.	.	.	8a\	tu	8cc\	tu	.
4.C/	.	4.c/	4.c/	.	.	8g\	prz[e]-	8b-\	prze-	.
.	.	.	.	.	.	8e\	-szłe-	8g\	-ſzłe-	.
.	.	.	.	.	.	8g\	-go	8b-\	-go	.
!	!	!	!	!	!	!LO:LB:g=original	!	!	!	!
=20	=20	=20	=20	=20	=20	=20	=20	=20	=20	=20
!LO:TX:t=P:problem=takty 17-19 - repetycja	!	!	!LO:TX:t=P:problem=takty 17-19 - repetycja	!	!	!	!	!	!	!
4.C/yy	.	4.c/	4.c/yy	4r	.	8f\	ro-	8a\	ro-	.
.	.	.	.	.	.	8c\	-ku	8f\	-ku	.
.	.	.	.	8r	.	8f\	by-	8a\	by-	.
4.C/yy	.	4.c/	4.c/yy	8G\	ia	4e\	-li	4g\	-li	.
.	.	.	.	8c\	wiem	.	.	.	.	.
.	.	.	.	8C/	to	8r	.	8r	.	.
!	!	!	!	!	!	!	!	!LO:LB:g=original	!	!
=21	=21	=21	=21	=21	=21	=21	=21	=21	=21	=21
!	!	!LO:TX:t=P:problem=repetycja taktu 20	!	!	!	!	!	!	!	!
4.C/yy	.	4.c/yy	4.c/yy	4r	.	8g\	a	8b-\	a	.
.	.	.	.	.	.	16g\LL	co	16b-\LL	co	.
.	.	.	.	.	.	16e\JJ	.	16g\JJ	.	.
.	.	.	.	8r	.	16f\LL	ia	16a\LL	ia	.
.	.	.	.	.	.	16d\JJ	.	16f\JJ	.	.
4.C/yy	.	4.c/yy	4.c/yy	8G\	po-	4e\	dam	4g\	dam	.
.	.	.	.	8c\	-wiem	.	.	.	.	.
.	.	.	.	8C/	wam	8r	.	8r	.	.
=22	=22	=22	=22	=22	=22	=22	=22	=22	=22	=22
4.C/yy	.	4.c/	4.c/yy	4.r	.	8g\	gdy	8b-\	gdy	.
.	.	.	.	.	.	16g\LL	nic	16b-\LL	nic	.
.	.	.	.	.	.	16e\JJ	.	16g\JJ	.	.
.	.	.	.	.	.	16f\LL	nie	16a\LL	nie	.
.	.	.	.	.	.	16d\JJ	.	16f\JJ	.	.
4.C/yy	.	4.c/	4.c/yy	8G\	Ja-	4e\	mam	4g\	mam	.
.	.	.	.	8c\	-dam	.	.	.	.	.
.	.	.	.	8C\	sam	8r	.	8r	.	.
!	!	!	!LO:LB:g=original	!LO:LB:g=original	!	!	!	!	!	!
=23	=23	=23	=23	=23	=23	=23	=23	=23	=23	=23
!	!	!	!	!	!	!LO:TX:a:t=1	!	!	!	!
8C\L|	.	8c/L	8c/L	8C/	te	2.r	.	2.r	.	.
8D\|	.	8d/	8d/	8D\	ma-	.	.	.	.	.
8E\J|	.	8e/J	8e/J	8E\	-łe	.	.	.	.	.
8F\L|	.	8f/L	8f/L	8F\	ia-	.	.	.	.	.
8G\|	.	8g/	8g/	8G\	-gniąt-	.	.	.	.	.
8A\J|	.	8a/J	8a/J	8A\	-ka	.	.	.	.	.
=24	=24	=24	=24	=24	=24	=24	=24	=24	=24	=24
!	!	!	!	!	!	!LO:N:vis=2	!	!LO:N:vis=2	!	!
8C\L|	.	8c/L	8c/L	8C\	wſzy-	4.r	.	4.r	.	.
8D\|	.	8d/	8d/	8D\	-stkie	.	.	.	.	.
8E\J|	.	8e/J	8e/J	8E\	mu	.	.	.	.	.
4F\|	.	4f/	4f/	4F\	dam	8r	.	8r	.	.
.	.	.	.	.	.	8a\	to	8ff\	do-	.
8r	.	8r	8r	8r	.	8f\	dam	8f/	-dam	.
=25	=25	=25	=25	=25	=25	=25	=25	=25	=25	=25
8C\L|	.	8c/L	8c/L	8C\	a	2.r	.	2.r	.	.
8D\|	.	8d/	8d/	8D\	sta-	.	.	.	.	.
8E\J|	.	8e/J	8e/J	8E\	-re	.	.	.	.	.
!	!	!	!	!LO:LB:g=original	!	!	!	!	!	!
8F\L|	.	8f/L	8f/L	8F\	Ba-	.	.	.	.	.
8G\|	.	8g/	8g/	8G\	-ra-	.	.	.	.	.
8A\J|	.	8a/J	8a/J	8A\	-ny	.	.	.	.	.
!	!	!LO:LB:g=original	!	!	!	!	!	!LO:LB:g=original	!	!
=26	=26	=26	=26	=26	=26	=26	=26	=26	=26	=26
!	!	!	!	!	!	!LO:N:vis=2	!	!LO:N:vis=2	!	!
8AA/L	.	8c/L	8c/L	8AA/	w do-	4.r	.	4.r	.	.
8BB-/	.	8d/	8d/	8BB-/	-mu	.	.	.	.	.
8C/J	.	8e/J	8e/J	8C/	nie	.	.	.	.	.
4FF/	.	4f/	4f/	4FF/	cham	8f\	w do-	8a\	w do-	.
.	.	.	.	.	.	16a\LL	-mu	16cc\LL	-mu	.
.	.	.	.	.	.	16f\JJ	.	16a\JJ	.	.
8r	.	8r	8r	8r	.	16g\LL	nie	16b-\LL	nie	.
.	.	.	.	.	.	16e\JJ	.	16g\JJ	.	.
=27	=27	=27	=27	=27	=27	=27	=27	=27	=27	=27
4.FF/	.	4.f/	4.f/	8F\	w do-	4f\	cham	4a\	cham	.
.	.	.	.	16A\LL	-mu	.	.	.	.	.
.	.	.	.	16F\JJ	.	.	.	.	.	.
.	.	.	.	16G\LL	nie	8r	.	8r	.	.
.	.	.	.	16C\JJ	.	.	.	.	.	.
4.FF/	.	4.f/	4.f/	4F\	cham	8c\	w do-	8a\	.	.
.	.	.	.	.	.	16c/LL	-mu	16a\LL	.	.
.	.	.	.	.	.	16A/JJ	.	16f\JJ	.	.
!	!	!	!	!	!	!LO:LB:g=original	!	!	!	!
.	.	.	.	8r	.	16B-/LL	nie	16g\LL	.	.
.	.	.	.	.	.	16G/JJ	.	16e\JJ	.	.
=28	=28	=28	=28	=28	=28	=28	=28	=28	=28	=28
4FF/	.	4f/	4f/	8AA/	w do-	4A/	cham	4f/	.	.
.	.	.	.	8BB-/	-mu	.	.	.	.	.
!	!	!	!	!LO:LB:g=original	!	!	!	!	!	!
8r	.	8r	8r	8C/	nie	16g\LL	nie	16b-\LL	nie	.
.	.	.	.	.	.	16e\JJ	.	16g\JJ	.	.
4FF/	.	4f/	4f/	4FF/	cham	4f\	cham	4a\	cham	.
8r	.	8r	8r	8r	.	8r	.	8r	.	.
!	!	!	!LO:LB:g=original	!	!	!	!	!	!	!
=29	=29	=29	=29	=29	=29	=29	=29	=29	=29	=29
4C/	.	4cc\	8ee\L	0.r	.	0.r	.	0.r	.	.
.	.	.	16ee\L	.	.	.	.	.	.	.
.	.	.	16cc\	.	.	.	.	.	.	.
8r	.	8g/	16dd\	.	.	.	.	.	.	.
.	.	.	16bn\JJ	.	.	.	.	.	.	.
8r	.	4cc\	4cc\	.	.	.	.	.	.	.
!LO:TX:t=P:problem=mixed beam	!	!	!	!	!	!	!	!	!	!
8c\L	.	.	.	.	.	.	.	.	.	.
8C/J	.	8r	8r	.	.	.	.	.	.	.
=30	=30	=30	=30	=30	=30	=30	=30	=30	=30	=30
4c\	.	8ee\L	8gg\L	.	.	.	.	.	.	.
.	.	16ee\L	16gg\L	.	.	.	.	.	.	.
.	.	16cc\	16ee\	.	.	.	.	.	.	.
8r	.	16dd\	16ff\	.	.	.	.	.	.	.
.	.	16bn\JJ	16dd\JJ	.	.	.	.	.	.	.
8r	.	4cc\	4ee\	.	.	.	.	.	.	.
!LO:TX:t=P:problem=mixed beam	!	!	!	!	!	!	!	!	!	!
8c\L	.	.	.	.	.	.	.	.	.	.
8C/J	.	8r	8r	.	.	.	.	.	.	.
=31	=31	=31	=31	=31	=31	=31	=31	=31	=31	=31
4.G\	.	8ee\L	8gg\L	.	.	.	.	.	.	.
.	.	8cc\	8ee\	.	.	.	.	.	.	.
.	.	8ee\J	8gg\J	.	.	.	.	.	.	.
!	!	!LO:LB:g=original	!	!	!	!	!	!	!	!
4.G\	.	8dd\L	8ff\L	.	.	.	.	.	.	.
!	!	!LO:SIC:v:s=8bn\	!	!	!	!	!	!	!	!
.	.	8b-\	8dd\	.	.	.	.	.	.	.
.	.	8dd\J	8ff\J	.	.	.	.	.	.	.
=32	=32	=32	=32	=32	=32	=32	=32	=32	=32	=32
4.G\	.	8cc\L	8ee\L	.	.	.	.	.	.	.
.	.	8a\	8cc\	.	.	.	.	.	.	.
.	.	8cc\J	8ee\J	.	.	.	.	.	.	.
!LO:TX:t=P:problem=mixed beam	!	!	!	!	!	!	!	!	!	!
8GG/L	.	4bn\	4dd\	.	.	.	.	.	.	.
8G\	.	.	.	.	.	.	.	.	.	.
8GG/J	.	8r	8r	.	.	.	.	.	.	.
!	!	!	!LO:LB:g=original	!	!	!	!	!	!	!
=33	=33	=33	=33	=33	=33	=33	=33	=33	=33	=33
4.G\	.	16e/LL	16g/LL	0.r	.	0.r	.	0.r	.	.
.	.	16c/	16e/	.	.	.	.	.	.	.
.	.	16g/	16cc/	.	.	.	.	.	.	.
.	.	16e/	16g/	.	.	.	.	.	.	.
.	.	16cc/	16ee/	.	.	.	.	.	.	.
.	.	16e/JJ	16cc/JJ	.	.	.	.	.	.	.
4.G\	.	16d/LL	16a/LL	.	.	.	.	.	.	.
.	.	16Bn/	16d/	.	.	.	.	.	.	.
.	.	16f/	16bn/	.	.	.	.	.	.	.
.	.	16d/	16f/	.	.	.	.	.	.	.
!	!	!LO:SIC:v:s=16bn/	!	!	!	!	!	!	!	!
.	.	16b-/	16dd/	.	.	.	.	.	.	.
.	.	16d/JJ	16f/JJ	.	.	.	.	.	.	.
=34	=34	=34	=34	=34	=34	=34	=34	=34	=34	=34
4.G\	.	16c/LL	16e/LL	.	.	.	.	.	.	.
.	.	16A/	16c/	.	.	.	.	.	.	.
.	.	16e/	16g/	.	.	.	.	.	.	.
.	.	16c/	16e/	.	.	.	.	.	.	.
.	.	16g/	16cc/	.	.	.	.	.	.	.
.	.	16c/JJ	16e/JJ	.	.	.	.	.	.	.
!LO:LB:g=original	!	!	!	!	!	!	!	!	!	!
!LO:TX:t=P:problem=mixed beam	!	!LO:SIC:v:s=4Bn/	!	!	!	!	!	!	!	!
8GG/L	.	4B-/	4d/	.	.	.	.	.	.	.
8G\	.	.	.	.	.	.	.	.	.	.
8GG/J	.	8r	8r	.	.	.	.	.	.	.
!	!	!LO:LB:g=original	!	!	!	!	!	!	!	!
=35	=35	=35	=35	=35	=35	=35	=35	=35	=35	=35
4G\	.	8dd\L	8ff\L	.	.	.	.	.	.	.
.	.	16dd\L	16ff\L	.	.	.	.	.	.	.
.	.	16bn\	16dd\	.	.	.	.	.	.	.
8r	.	16cc\	16ee\	.	.	.	.	.	.	.
.	.	16a\JJ	16cc\JJ	.	.	.	.	.	.	.
8r	.	4b\	4dd\	.	.	.	.	.	.	.
!LO:TX:t=P:problem=mixed beam	!	!	!	!	!	!	!	!	!	!
8G\L	.	.	.	.	.	.	.	.	.	.
8GG/J	.	8r	8r	.	.	.	.	.	.	.
=36	=36	=36	=36	=36	=36	=36	=36	=36	=36	=36
4G\	.	8d/L	8f/L	.	.	.	.	.	.	.
.	.	16d/L	16f/L	.	.	.	.	.	.	.
.	.	16Bn/	16d/	.	.	.	.	.	.	.
8r	.	16c/	16e/	.	.	.	.	.	.	.
.	.	16A/JJ	16c/JJ	.	.	.	.	.	.	.
8r	.	4B/	4d/	.	.	.	.	.	.	.
!LO:TX:t=P:problem=mixed beam	!	!	!	!	!	!	!	!	!	!
8G\L	.	.	.	.	.	.	.	.	.	.
8GG/J	.	8r	8r	.	.	.	.	.	.	.
!	!	!	!LO:LB:g=original	!	!	!	!	!	!	!
=37	=37	=37	=37	=37	=37	=37	=37	=37	=37	=37
8G\L|	.	8G/L	8G/L	0.r	.	0.r	.	0.r	.	.
8A\|	.	8A/	8A/	.	.	.	.	.	.	.
!LO:SIC:v:s=8Bn\J	!	!	!	!	!	!	!	!	!	!
!	!	!LO:SIC:v:s=8Bn/J	!LO:SIC:v:s=8Bn/J	!	!	!	!	!	!	!
8B-\J|	.	8B-/J	8B-/J	.	.	.	.	.	.	.
8c\L	.	8c/L	8c/L	.	.	.	.	.	.	.
8d\	.	8d/	8d/	.	.	.	.	.	.	.
8e\J	.	8e/J	8e/J	.	.	.	.	.	.	.
=38	=38	=38	=38	=38	=38	=38	=38	=38	=38	=38
8G\L|	.	8G/L	8G/L	.	.	.	.	.	.	.
8A\|	.	8A/	8A/	.	.	.	.	.	.	.
!	!	!LO:SIC:v:s=8Bn/J	!LO:SIC:v:s=8Bn/J	!	!	!	!	!	!	!
8Bn\J|	.	8B-/J	8B-/J	.	.	.	.	.	.	.
!	!	!LO:LB:g=original	!LO:TX:t=P:problem=mixed beam	!	!	!	!	!	!	!
4c\	.	8.c/L	8.c/L	.	.	.	.	.	.	.
.	.	16c/L	16cc\L	.	.	.	.	.	.	.
!	!	!LO:SIC:v:s=16Bn/	!LO:SIC:v:s=16bn/	!	!	!	!	!	!	!
8r	.	16B-/	16b-\	.	.	.	.	.	.	.
.	.	16A/JJ	16a\JJ	.	.	.	.	.	.	.
=39	=39	=39	=39	=39	=39	=39	=39	=39	=39	=39
!LO:TX:b:t=|:problem	!	!	!	!	!	!	!	!	!	!
8GG/L|	.	8G/L	8g/L	.	.	.	.	.	.	.
!LO:TX:b:t=|:problem	!	!	!	!	!	!	!	!	!	!
8AA/|	.	8A/	8a/	.	.	.	.	.	.	.
!LO:TX:b:t=|:problem	!	!LO:SIC:v:s=8Bn/J	!LO:SIC:v:s=8bn/J	!	!	!	!	!	!	!
8BBn/J|	.	8B-/J	8b-/J	.	.	.	.	.	.	.
!LO:TX:b:t=|:problem	!	!	!	!	!	!	!	!	!	!
8C\L|	.	8c/L	8cc\L	.	.	.	.	.	.	.
!LO:TX:b:t=|:problem	!	!	!	!	!	!	!	!	!	!
8D\|	.	8d/	8dd\	.	.	.	.	.	.	.
!LO:TX:b:t=|:problem	!	!	!	!	!	!	!	!	!	!
8E\J|	.	8e/J	8ee\J	.	.	.	.	.	.	.
=40	=40	=40	=40	=40	=40	=40	=40	=40	=40	=40
8EE/L|>	.	8e/L	8e/L	.	.	.	.	.	.	.
8FF/|>	.	8f/	8f/	.	.	.	.	.	.	.
8GG/J|>	.	8g/J	8g/J	.	.	.	.	.	.	.
!	!	!	!LO:TX:t=P:problem=mixed beam	!	!	!	!	!	!	!
4.CC/	.	4cc\	8c/L	.	.	.	.	.	.	.
.	.	.	16ee\L	.	.	.	.	.	.	.
.	.	.	16cc\	.	.	.	.	.	.	.
.	.	8bn\	16dd\	.	.	.	.	.	.	.
!	!	!	!LO:SIC:v:s=16bn/JJ	!	!	!	!	!	!	!
.	.	.	16b-\JJ	.	.	.	.	.	.	.
!	!	!	!LO:LB:g=original	!	!	!	!	!	!	!
=41	=41	=41	=41	=41	=41	=41	=41	=41	=41	=41
4.C/	.	8cc\L	8cc\L	1.r	.	1.r	.	1.r	.	.
.	.	16ee\L	16gg\L	.	.	.	.	.	.	.
.	.	16cc\	16ee\	.	.	.	.	.	.	.
.	.	16dd\	16ff\	.	.	.	.	.	.	.
.	.	16bn\JJ	16dd\JJ	.	.	.	.	.	.	.
4.C/	.	8cc/L	8ee\L	.	.	.	.	.	.	.
.	.	16g/L	16ee\L	.	.	.	.	.	.	.
.	.	16e/	16cc\	.	.	.	.	.	.	.
.	.	16f/	16dd\	.	.	.	.	.	.	.
!	!	!	!LO:SIC:v:s=16bn\JJ	!	!	!	!	!	!	!
.	.	16d/JJ	16b-\JJ	.	.	.	.	.	.	.
!	!	!LO:PB:g=original	!	!	!	!	!	!	!	!
=42	=42	=42	=42	=42	=42	=42	=42	=42	=42	=42
4.C/	.	8e/L	8cc/L	.	.	.	.	.	.	.
.	.	16e/L	16g/L	.	.	.	.	.	.	.
.	.	16c/	16e/	.	.	.	.	.	.	.
.	.	16d/	16f/	.	.	.	.	.	.	.
.	.	16Bn/JJ	16d/JJ	.	.	.	.	.	.	.
4.C/	.	4c/	4c/	.	.	.	.	.	.	.
.	.	8r	8r	.	.	.	.	.	.	.
!	!	!	!	!	!	!	!	!LO:LB:g=original	!	!
=43	=43	=43	=43	=43	=43	=43	=43	=43	=43	=43
!	!	!	!	!	!	!	!	!LO:N:vis=2	!	!
8C/L	.	4e/	4e/	4E\	Bar-	2.r	.	4.r	.	.
8BBn/	.	.	.	.	.	.	.	.	.	.
8GG/J	.	8d/	8d/	8D\	-to-	.	.	.	.	.
!LO:LB:g=original	!	!	!	!	!	!	!	!	!	!
4C/	.	4c/	4c/	4C/	-szu	.	.	8r	.	.
.	.	.	.	.	.	.	.	8ee\	I-	.
8r	.	8r	8r	8r	.	.	.	8cc\	-de	.
=44	=44	=44	=44	=44	=44	=44	=44	=44	=44	=44
!	!	!LO:N:vis=4.	!	!	!	!LO:N:vis=2	!	!LO:N:vis=2	!	!
8E\L	.	4g/	4g/	4G\	Je-	4.r	.	4.r	.	.
8D\J	.	.	.	.	.	.	.	.	.	.
8GG/	.	8f/	8f/	8F\	-dru-	.	.	.	.	.
4C/	.	4e/	4e/	4E\	-siu	8r	.	8r	.	.
.	.	.	.	.	.	8ee\	ot-	8gg\	ie-	.
8r	.	8e/	8r	8r	.	8cc\	-cem	8ee\	-zdem	.
=45	=45	=45	=45	=45	=45	=45	=45	=45	=45	=45
4.GG/	.	4.G/	4.G/	8G\	u-	1.r	.	2.r	.	.
.	.	.	.	8e\	-scis-	.	.	.	.	.
.	.	.	.	8G\	-kay	.	.	.	.	.
!	!	!	!	!LO:LB:g=original	!	!	!	!	!	!
4.GG/	.	4.G/	4.G/	8F\	o-	.	.	.	.	.
.	.	.	.	8d\	-de	.	.	.	.	.
.	.	.	.	8F\	mnie	.	.	.	.	.
!	!	!	!LO:PB:g=original	!	!	!	!	!	!	!
=46	=46	=46	=46	=46	=46	=46	=46	=46	=46	=46
4.GG/	.	4.G/	4.G/	8E\	Pa-	.	.	4r	.	.
.	.	.	.	8c\L	-nią-	.	.	.	.	.
.	.	.	.	8E\J	.	.	.	8r	.	.
4.GG/	.	4.G/	4.G/	4D\	-tko	.	.	8dd\	to	.
.	.	.	.	.	.	.	.	8gg\	po-	.
.	.	.	.	8r	.	.	.	8g\	-wiem	.
=47	=47	=47	=47	=47	=47	=47	=47	=47	=47	=47
4.GG/	.	4.G/	4.G/	8G\	ia	2.r	.	1.r	.	.
.	.	.	.	8e\	mu	.	.	.	.	.
.	.	.	.	8G\	dam	.	.	.	.	.
4.GG/	.	4.G/	4.G/	8F\	o-	.	.	.	.	.
.	.	.	.	8d\	-sta-	.	.	.	.	.
.	.	.	.	8F\	-tnie	.	.	.	.	.
!	!	!	!	!LO:LB:g=original	!	!	!	!	!	!
=48	=48	=48	=48	=48	=48	=48	=48	=48	=48	=48
!LO:TX:t=P:problem=takty 48-50 - repetycja	!	!LO:TX:t=P:problem=takty 48-50 - repetycja	!	!	!	!LO:N:vis=2	!	!	!	!
4.GG/yy	.	4.G/yy	4.G/	8E\	Ja-	4.r	.	.	.	.
.	.	.	.	8c\L	-gnią-	.	.	.	.	.
.	.	.	.	8E\J	.	.	.	.	.	.
4.GG/yy	.	4.G/yy	4.G/	4D\	-tko	8d\	to	.	.	.
!	!	!	!	!	!	!LO:LB:g=original	!	!	!	!
.	.	.	.	.	.	8g\	we-	.	.	.
.	.	.	.	8r	.	8G/	-zmę	.	.	.
!	!	!	!	!	!	!	!	!LO:LB:g=original	!	!
=49	=49	=49	=49	=49	=49	=49	=49	=49	=49	=49
!	!	!	!	!	!	!LO:N:vis=2	!	!	!	!
4.GG/yy	.	4.G/yy	4.G/	8F\	co	4.r	.	4r	.	.
.	.	.	.	16F\LL	tyl-	.	.	.	.	.
.	.	.	.	16D\JJ	.	.	.	.	.	.
.	.	.	.	16E\LL	-ko	.	.	8r	.	.
.	.	.	.	16C\JJ	.	.	.	.	.	.
4.GG/yy	.	4.G/yy	4.G/	4D\	mam	8r	.	8r	.	.
.	.	.	.	.	.	8dd\	to	8ff\	to	.
.	.	.	.	8r	.	8b-\	dam	8dd\	dam	.
=50	=50	=50	=50	=50	=50	=50	=50	=50	=50	=50
!	!	!	!	!	!	!LO:N:vis=2	!	!	!	!
4.GG/yy	.	4.G/yy	4.G/	8F\	y	4.r	.	4r	.	.
.	.	.	.	16F\LL	to	.	.	.	.	.
.	.	.	.	16D\JJ	.	.	.	.	.	.
.	.	.	.	16E\LL	mu	.	.	8r	.	.
.	.	.	.	16C\JJ	.	.	.	.	.	.
4.GG/yy	.	4.G/yy	4.G/	4D\	dam	8r	.	8r	.	.
.	.	.	.	.	.	8dd\	do-	8ff\	do-	.
.	.	.	.	8r	.	8b-\	-dam	8dd\	-dam	.
!	!	!LO:LB:g=original	!	!LO:LB:g=original	!	!	!	!	!	!
=51	=51	=51	=51	=51	=51	=51	=51	=51	=51	=51
8G\L|	.	8g\L	8g\L	8G\	Ko-	2.r	.	2.r	.	.
8A\|	.	8a\	8a\	8A\	-zlą-	.	.	.	.	.
8Bn\J|	.	8bn\J	8bn\J	8B-\	-tka	.	.	.	.	.
8c\L|	.	8cc\L	8cc\L	8c\	ba-	.	.	.	.	.
8d\|	.	8dd\	8dd\	8d\	-ran-	.	.	.	.	.
8e\J|	.	8ee\J	8ee\J	8e\	-ki	.	.	.	.	.
=52	=52	=52	=52	=52	=52	=52	=52	=52	=52	=52
!	!	!	!	!	!	!LO:N:vis=2	!	!	!	!
8G\L	.	8g\L	8g\L	8G\	y	4.r	.	4r	.	.
8A\	.	8a\	8a\	8A\	to	.	.	.	.	.
!	!	!	!	!LO:SIC:v:s=8Bn\	!	!	!	!	!	!
8Bn\J	.	8bn\J	8bn\J	8B-\	mu	.	.	8r	.	.
4c\	.	4cc\	4cc\	4c\	dam	8r	.	8r	.	.
.	.	.	.	.	.	8g\	do-	8ee\	do-	.
8r	.	8r	8r	8r	.	8e\	-dam	8cc\	-dam	.
!	!	!	!	!LO:PB:g=original	!	!LO:LB:g=original	!	!LO:LB:g=original	!	!
=53	=53	=53	=53	=53	=53	=53	=53	=53	=53	=53
!	!	!	!	!	!	!LO:TX:a:t=1	!	!LO:TX:a:t=1	!	!
8GG/L	.	8G/L	8G/L	8GG/	a	2.r	.	2.r	.	.
8AA/	.	8A/	8A/	8AA/	sta-	.	.	.	.	.
8BBn/J	.	8Bn/J	8Bn/J	8BBn/	-re	.	.	.	.	.
!	!	!	!LO:LB:g=original	!	!	!	!	!	!	!
8C/L	.	8c/L	8c/L	8C/	Ba-	.	.	.	.	.
8D/	.	8d/	8d/	8D\	-ra-	.	.	.	.	.
8E/J	.	8e/J	8e/J	8E\	-ny	.	.	.	.	.
=54	=54	=54	=54	=54	=54	=54	=54	=54	=54	=54
!	!	!	!	!	!	!LO:N:vis=2	!	!	!	!
8EE/L	.	8e/L	8e/L	8E\	w do-	4.r	.	4r	.	.
8FF/	.	8f/	8f/	8F\	-mu	.	.	.	.	.
8GG/J	.	8g/J	8g/J	8G\	nie	.	.	8r	.	.
4.CC/	.	4.c/	4.c/	4C/	cham	8cc\	w do	8ee\	w do-	.
.	.	.	.	.	.	16ee\LL	mu	16gg\LL	-mu	.
.	.	.	.	.	.	16cc\JJ	.	16ee\JJ	.	.
.	.	.	.	8r	.	16dd\LL	nie	16ff\LL	nie	.
.	.	.	.	.	.	16b-\JJ	.	16dd\JJ	.	.
!LO:LB:g=original	!	!	!	!	!	!	!	!	!	!
=55	=55	=55	=55	=55	=55	=55	=55	=55	=55	=55
4.C/	.	4.c/	4.c/	8C\	w do-	4cc\	cham	4ee\	cham	.
.	.	.	.	16E\LL	-mu	.	.	.	.	.
.	.	.	.	16C\JJ	.	.	.	.	.	.
!	!	!	!	!LO:LB:g=original	!	!	!	!	!	!
.	.	.	.	16D\LL	nie	8r	.	8r	.	.
.	.	.	.	16BBn\JJ	.	.	.	.	.	.
4.C/	.	4.c/	4.c/	4C/	cham	8g\	w do-	8ee\	.	.
.	.	.	.	.	.	16g\LL	-mu	16ee\LL	.	.
.	.	.	.	.	.	16e\JJ	.	16cc\JJ	.	.
.	.	.	.	8r	.	16f\LL	nie	16dd\LL	.	.
.	.	.	.	.	.	16d\JJ	.	16b-\JJ	.	.
!	!	!LO:LB:g=original	!	!	!	!	!	!	!	!
=56	=56	=56	=56	=56	=56	=56	=56	=56	=56	=56
*	*	*	*	*	*ij	*	*	*	*	*
4.C/	.	4.c/	4.c/	8E\	w do-	4e\	cham	4cc\	.	.
.	.	.	.	8F\	-mu	.	.	.	.	.
.	.	.	.	8G\	nie	16f\LL	nie	16dd\LL	nie	.
.	.	.	.	.	.	16d\JJ	.	16b-\JJ	.	.
4.C/	.	4.c/	4.c/	4C/	cham	4e\	cham	4cc\	cham	.
*	*	*	*	*	*Xij	*	*	*	*	*
.	.	.	.	8r	.	8r	.	8r	.	.
!	!	!	!	!	!	!LO:LB:g=original	!	!LO:LB:g=original	!	!
=57	=57	=57	=57	=57	=57	=57	=57	=57	=57	=57
!LO:TX:a:i:t=Tutti	!	!	!	!	!	!	!	!	!	!
4F\	.	16cc\LL	16ff\LL	4F\	Kro-	4f\	Kro-	4a\	Kro-	.
.	.	16a\	16cc\	.	.	.	.	.	.	.
.	.	16cc\	16ff\	.	.	.	.	.	.	.
.	.	16a\	16cc\	.	.	.	.	.	.	.
8C\	.	16b-X\	16ff\	8C/	-lu	8e\	-lu	8g\	-lu	.
.	.	16g\JJ	16cc\JJ	.	.	.	.	.	.	.
4F\	.	16a\LL	8ff\L	4F\	naſz	4f\	naſz	4f/	naſz	.
.	.	16f\	.	.	.	.	.	.	.	.
!	!	!LO:TX:a:t=c	!	!	!	!	!	!	!	!
.	.	16cc\	16aa\L	.	.	.	.	.	.	.
!	!	!LO:TX:a:t=a	!	!	!	!	!	!	!	!
.	.	16a\	16ff\	.	.	.	.	.	.	.
8r	.	16b-\	16gg\	8r	.	8r	.	8r	.	.
.	.	16g\JJ	16cc\JJ	.	.	.	.	.	.	.
=58	=58	=58	=58	=58	=58	=58	=58	=58	=58	=58
4F\	.	16f\LL	16aa\LL	4F\	o-	4a\	o-	4cc\	o	.
.	.	16cc\	16ff\	.	.	.	.	.	.	.
.	.	16ff\	16aa\	.	.	.	.	.	.	.
.	.	16cc\	16ff\	.	.	.	.	.	.	.
8C\	.	16ee\	16aa\	8C/	-to	8g\	-to	8b-\	to	.
.	.	16cc\JJ	16ff\JJ	.	.	.	.	.	.	.
!	!	!	!LO:LB:g=original	!LO:LB:g=original	!	!	!	!	!	!
4F\	.	8ff\L	8aa\L	4F\	maſz	4f\	maſz	4a\	maſz	.
.	.	16aa\L	16ccc\L	.	.	.	.	.	.	.
.	.	16ff\	16aa\JJ	.	.	.	.	.	.	.
8r	.	16gg\	16b-\LL	8r	.	8r	.	8r	.	.
.	.	16ee\JJ	16gg\JJ	.	.	.	.	.	.	.
=59	=59	=59	=59	=59	=59	=59	=59	=59	=59	=59
4F\	.	16ff\LL	16aa\LL	8F\	co	8a\	co	8cc\	co	.
.	.	16a\	16cc\	.	.	.	.	.	.	.
.	.	16cc\	16aa\	8F\	my	8f\	my	8a\	my	.
.	.	16a\	16cc\	.	.	.	.	.	.	.
8F\	.	16cc\	16aa\	8F\	o-	8a\	o-	8cc\	o-	.
.	.	16a\JJ	16cc\JJ	.	.	.	.	.	.	.
!	!	!LO:LB:g=original	!	!	!	!	!	!	!	!
4E\	.	16b-\LL	16gg\LL	8E\	-bie-	8g\	-bie-	8b-\	-bie-	.
.	.	16g\	16b-\	.	.	.	.	.	.	.
.	.	16b-\	16gg\	8E\	-ca-	8e\	-ca-	8g\	-ca-	.
.	.	16g\	16b-\	.	.	.	.	.	.	.
8E\	.	16b-\	16gg\	8E\	-li	8g\	-li	8b-\	-li	.
.	.	16g\JJ	16b-\JJ	.	.	.	.	.	.	.
!	!	!	!	!	!	!LO:LB:g=original	!	!LO:LB:g=original	!	!
=60	=60	=60	=60	=60	=60	=60	=60	=60	=60	=60
4F\	.	16a/LL	16ff\LL	8F\	od-	8f\	od-	8a\	do-	.
.	.	16f/	16a\	.	.	.	.	.	.	.
!	!	!	!	!LO:SIC:v:s=8F\	!	!	!	!	!	!
.	.	16a/	16ff\	8G\	-da-	8c\	-da-	8f/	-da-	.
.	.	16f/	16a\	.	.	.	.	.	.	.
8BB-/	.	16a/	16ff\	8BB-/	-ie-	8f\	-ie-	8a\	-ie-	.
.	.	16f/JJ	16a\JJ	.	.	.	.	.	.	.
!	!	!LO:TX:t=P:problem=mixed beam	!	!	!	!	!	!	!	!
4C/	.	16e/LL	8ee\L	4C/	-my	4e\	-my	4g\	-my	.
.	.	16ee\	.	.	.	.	.	.	.	.
.	.	16b-\	16ccc\L	.	.	.	.	.	.	.
.	.	16g\JJ	16gg\	.	.	.	.	.	.	.
8r	.	8e/	16ee\	8r	.	8r	.	8r	.	.
.	.	.	16cc\JJ	.	.	.	.	.	.	.
!	!	!	!	!LO:LB:g=original	!	!	!	!	!	!
=61	=61	=61	=61	=61	=61	=61	=61	=61	=61	=61
!	!	!	!LO:N:vis=8	!	!	!	!	!	!	!
4F\	.	16a\LL	16cc\LL	8F\	wię-	8a\	wię-	8cc\	wię-	.
.	.	16f\	16a\	.	.	.	.	.	.	.
!	!	!	!LO:TX:a:t=f	!	!	!	!	!	!	!
.	.	16cc\	16ff\	8F\	-cy	8f\	-cey	8a\	-cey	.
.	.	16a\	16cc\	.	.	.	.	.	.	.
8F\	.	16ff\	16aa\	8F\	by	8a\	by	8cc\	by	.
.	.	16cc\JJ	16cc\JJ	.	.	.	.	.	.	.
!	!	!	!LO:LB:g=original	!	!	!	!	!	!	!
4E\	.	16g\LL	16b-\LL	8E\	my	8g\	my	8b-\	[[da-	my
.	.	16e\	16g\	.	.	.	.	.	.	.
.	.	16b-\	16ee\	8E\	da-	8e\	da-	8g\	-li]]	da-
.	.	16g\	16b-\	.	.	.	.	.	.	.
!	!	!	!LO:TX:a:t=g	!	!	!	!	!	!	!
!	!	!	!LO:TX:a:t=g	!	!	!	!	!	!	!
8E\	.	16ee\	16gg\	8E\	-li	8g\	-li	8b-\	.	-li
.	.	16g\JJ	16b-\JJ	.	.	.	.	.	.	.
=62	=62	=62	=62	=62	=62	=62	=62	=62	=62	=62
4F\	.	16f/LL	16a/LL	8F\	lecz	8f\	lecz	8a\	lecz	.
.	.	16c/	16f/	.	.	.	.	.	.	.
.	.	16a/	16cc/	8F\	nie	8c\	nie	8f/	nie	.
.	.	16f/	16a/	.	.	.	.	.	.	.
8BB-/	.	16cc/	16ff/	8BB-/	ma-	8f\	ma-	8a\	ma-	.
.	.	16a/JJ	16a/JJ	.	.	.	.	.	.	.
!	!	!LO:LB:g=original	!	!	!	!LO:PB:g=original	!	!LO:PB:g=original	!	!
4C/	.	16e/LL	16g/LL	4C/	-my	4e\	-my	4g\	-my	.
.	.	16cc/	16cc/	.	.	.	.	.	.	.
.	.	16g/	16g/	.	.	.	.	.	.	.
.	.	16e/	16e/J	.	.	.	.	.	.	.
8r	.	16c/	8c/J	8r	.	8r	.	8r	.	.
.	.	16c/JJ	.	.	.	.	.	.	.	.
!LO:LB:g=original	!	!	!	!	!	!	!	!	!	!
=63	=63	=63	=63	=63	=63	=63	=63	=63	=63	=63
8C/L	7	16ee\LL	16gg\LL	8C\	wes	8g\	wes	8b-\	wes	.
.	.	16cc\	16cc\	.	.	.	.	.	.	.
8D/	.	16ee\	16gg\	8E\	to	16g\LL	to	16b-\LL	to	.
.	.	16cc\	16cc\	.	.	16e\JJ	.	16g\JJ	.	.
8E/J	.	16ff\	16aa\	8F\	od	16f\LL	od	16a\LL	od	.
.	.	16cc\JJ	16cc\JJ	.	.	16d\JJ	.	16f\JJ	.	.
!	!	!	!	!LO:LB:g=original	!	!	!	!	!	!
4.C/	.	8gg\L	8bb-\L	4C/	nas	4e\	nas	4g\	nas	.
.	.	16gg\L	16bb-\L	.	.	.	.	.	.	.
.	.	16ee\	16gg\	.	.	.	.	.	.	.
.	.	16ff\	16aa\	8r	.	8r	.	8r	.	.
.	.	16dd\JJ	16ff\JJ	.	.	.	.	.	.	.
=64	=64	=64	=64	=64	=64	=64	=64	=64	=64	=64
8C\L	7	16g/LL	16ee\LL	8C/	choc	8g\	choc	8b-\	choc	.
.	.	16c/	16cc\	.	.	.	.	.	.	.
8E\	.	16g/	16ee\	8E\	na-	16g\LL	na-	16b-\LL	na	.
.	.	16c/	16cc\	.	.	16e\JJ	.	16g\JJ	.	.
8F\J	3	16a/	16ff\	8F\	-ten-	16f\LL	-ten-	16a\LL	ten	.
.	.	16c/JJ	16cc\JJ	.	.	16d\JJ	.	16f\JJ	.	.
!	!	!	!LO:LB:g=original	!	!	!	!	!	!	!
4C/	.	8b-/L	8gg\L	4C/	-czas	4e\	-czas	4g\	czas	.
.	.	16b-/L	16gg\L	.	.	.	.	.	.	.
.	.	16g/	16ee\	.	.	.	.	.	.	.
8r	.	16a/	16ff\	8r	.	8r	.	8r	.	.
.	.	16f/JJ	16dd\JJ	.	.	.	.	.	.	.
=65	=65	=65	=65	=65	=65	=65	=65	=65	=65	=65
8C\L|	.	8c/L	8cc\L	8C/	iak	8c\	iak	8cc\	gdy	.
8D\|	.	8d/	8dd\	8D/	więc	8d\	be-	8dd\	co	.
8E\J|	.	8e/J	8ee\J	8E\	bę-	8e\	-dzie-	8ee\	be-	.
!	!	!	!	!	!	!LO:LB:g=original	!	!LO:LB:g=original	!	!
8F\L|	.	8f/L	8ff\L	8F\	-dziem	8f\	-my	8ff\	-dziem	.
8G\|	.	8g/	8gg\	8G\	mie-	8g\	mie-	8gg\	mie-	.
8A\J|	.	8a/J	8aa\J	8A\	-li	8a\	-li	8aa\	-li	.
!	!	!LO:LB:g=original	!	!	!	!	!	!	!	!
=66	=66	=66	=66	=66	=66	=66	=66	=66	=66	=66
8C\L	.	8c/L	8cc\L	8C/	przy-	8c\	przy-	8cc\	przy-	.
8D\	.	8d/	8dd\	8D/	-dzie-	8d\	-dzie-	8dd\	-dzie-	.
!	!	!	!	!LO:LB:g=original	!	!	!	!	!	!
8E\J	.	8e/J	8ee\J	8E\	-my	8e\	-my	8ee\	-my	.
!	!	!LO:TX:t=P:problem=mixed beam	!LO:TX:t=P:problem=mixed beam	!	!	!	!	!	!	!
4.F\	.	8.f/L	8ff\L	4F\	zas	8f\	zas	4ff\	zas	.
.	.	.	16f/L	.	.	8r	.	.	.	.
.	.	16ff\L	16e/J	.	.	.	.	.	.	.
.	.	16ee\	8d/J	8r	.	8r	.	8r	.	.
.	.	16dd\JJ	.	.	.	.	.	.	.	.
=67	=67	=67	=67	=67	=67	=67	=67	=67	=67	=67
8C\L|	.	8cc\L	8c/L	8C\	za	8c\	za	8cc\	za	.
8D\|	.	8dd\	8d/	8D\	tym	8d\	tym	8dd\	tym	.
8E\J|	.	8ee\J	8e/J	8E\	twey	8e\	twey	8ee\	twey	.
8F\L|	.	8ff\L	8f/L	8F\	mi-	8f\	mi-	8ff\	mi-	.
8G\|	.	8gg\	8g/	8G\	-ło-	8g\	-ło-	8gg\	-ło-	.
8A\J|	.	8aa\J	8a/J	8A\	-sci	8a\	-sci	8aa\	-sci	.
!	!	!	!	!	!	!LO:LB:g=original	!	!LO:LB:g=original	!	!
=68	=68	=68	=68	=68	=68	=68	=68	=68	=68	=68
8AA/L	.	8a\L	8A/L	8AA/	u-	8c\	u-	8a\	u-	.
8BB-/	.	8b-\	8B-/	8BB-/	-trzy-	8d\	-trzy-	8b-\	-trzy-	.
8C/J	.	8cc\J	8c/J	8C/	-may	8e\	-muy	8cc\	-muy	.
!	!	!	!LO:TX:t=P:problem=mixed beam	!	!	!	!	!	!	!
4.FF/	.	8f/L	8f/L	4FF/	nas	8f\	nas	8f/	nas	.
.	.	16cc/L	16aa\L	.	.	16a\LL	trzy-	16cc\LL	trzy-	.
.	.	16a/	16ff\	.	.	16f\JJ	.	16a\JJ	.	.
.	.	16b-/	16gg\	8r	.	16g\LL	-may	16b-\LL	-may	.
.	.	16g/JJ	16cc\JJ	.	.	16e\JJ	.	16g\JJ	.	.
!	!	!	!LO:LB:g=original	!LO:LB:g=original	!	!	!	!	!	!
=69	=69	=69	=69	=69	=69	=69	=69	=69	=69	=69
4.FF/	.	8a\L	8ff\L	8F\	u-	8f\L	nas	8a\	nas	.
.	.	16aa\L	16ccc\L	16A\LL	-trzy-	8f\J	nas	8r	.	.
.	.	16ff\	16aa\	16F\JJ	.	.	.	.	.	.
.	.	16gg\	16bb-\	16G\LL	-muy	8r	.	8a\	u-	.
.	.	16ee\JJ	16gg\JJ	16E\JJ	.	.	.	.	.	.
4.FF/	.	8ff\L	8aa\L	8F\L	naſ	8c\	u-	16a\LL	-trzy-	.
.	.	.	.	.	.	.	.	16f\JJ	.	.
.	.	16cc\L	16aa\L	8F\J	naſ	16c/LL	-trzy-	16g/LL	-muy	.
.	.	16a\	16ff\	.	.	16A/JJ	.	16e/JJ	.	.
.	.	16b-\	16gg\	8r	.	16B-/LL	-muy	8r	.	.
.	.	16g\JJ	16ee\JJ	.	.	16G/JJ	.	.	.	.
!	!	!LO:LB:g=original	!	!	!	!LO:LB:g=original	!	!	!	!
=70	=70	=70	=70	=70	=70	=70	=70	=70	=70	=70
8AA/L	6	8a/L	8ff\L	8AA/	u-	4A/	nas	4f/	nas	.
8BB-/	.	16a/L	16cc\L	8BB-/	-trzy-	.	.	.	.	.
.	.	16f/	16a\	.	.	.	.	.	.	.
8C/J	7	16g/	16b-\	8C/	-muy	16g\LL	nas	16b-\LL	[[trz]]	nas
.	.	16e/JJ	16g\JJ	.	.	16e\JJ	.	16g\JJ	.	.
4FF/	.	4f/	4f/	4FF/	nas	4f\	nas	4a\	nas	.
8r	.	8r	8r	8r	.	8r	.	8r	.	.
!LO:PB:g=original	!	!LO:PB:g=original	!LO:LB:g=original	!LO:LB:g=original	!	!	!	!LO:LB:g=original	!	!
=71||	=71||	=71||	=71||	=71||	=71||	=71||	=71||	=71||	=71||	=71||
*M2/4	*	*M2/4	*M2/4	*M2/4	*	*M2/4	*	*M2/4	*	*
!LO:TX:a:t=allo	!	!LO:TX:a:t=allo.	!LO:TX:a:t=allo.	!LO:TX:a:t=allo	!	!LO:TX:a:t=allo	!	!	!	!
8F\L	.	4cc\	4aa\	8F\L	al-	4a\	Al-	4ff\	al-	.
8A\J	.	.	.	8A\J	.	.	.	.	.	.
8C\L	7	8r	8r	8C\	-le-	8g\	-le-	8ee\	-le-	.
16D\L	.	8ee\	8gg\	16D\LL	-lu-	8g\	-lu-	8ee\	-lu-	.
16E\JJ	.	.	.	16E\JJ	.	.	.	.	.	.
=72	=72	=72	=72	=72	=72	=72	=72	=72	=72	=72
4F\	.	8ff\L	8aa\L	4F\	-ia	4a\	-ia	4ff\	-ia	.
.	.	8aa\	8ccc\J	.	.	.	.	.	.	.
4r	.	8cc\	8cc\L	4r	.	4r	.	4r	.	.
.	.	8b-\J	16dd\L	.	.	.	.	.	.	.
.	.	.	16ee\JJ	.	.	.	.	.	.	.
=73	=73	=73	=73	=73	=73	=73	=73	=73	=73	=73
*	*	*	*	*	*ij	*	*ij	*	*ij	*
8A\L	.	4a/	4ff\	8A\L	al-	4a\	Al-	4ff\	al-	.
8c\J	.	.	.	8c\J	.	.	.	.	.	.
8C\L	7	8r	8r	8C/	-le-	8g\	-le-	8ee\	-le-	.
16D\L	.	8cc\	8gg\	16D\LL	-lu-	8g\	-lu-	8ee\	-lu	.
16E\JJ	.	.	.	16E\JJ	.	.	.	.	.	.
*	*	*	*	*	*	*	*	*	*Xij	*
!	!	!	!	!	!	!LO:LB:g=original	!	!	!	!
=74	=74	=74	=74	=74	=74	=74	=74	=74	=74	=74
*	*	*	*	*	*	*	*	*2\right	*	*
4F\	.	8ff\L	8aa\L	4F\	-ia	4a\	-ia	2ff\	a-	.
*	*	*	*	*	*Xij	*	*Xij	*	*	*
.	.	8aa\	8ccc\J	.	.	.	.	.	.	.
4r	.	8cc\	8cc\L	4r	.	4r	.	.	.	.
.	.	8b-\J	16dd\L	.	.	.	.	.	.	.
.	.	.	16ee\JJ	.	.	.	.	.	.	.
!	!	!	!	!LO:PB:g=original	!	!	!	!	!	!
=75	=75	=75	=75	=75	=75	=75	=75	=75	=75	=75
8F\L	3	4a\	16ff\LL	8F\L	al-	8a\L	al-	2dd\	-le-	.
.	.	.	16gg\	.	.	.	.	.	.	.
8E\	.	.	16aa\	8E\J	.	8g\J	.	.	.	.
.	.	.	16bb-\JJ	.	.	.	.	.	.	.
!	!	!	!LO:LB:g=original	!	!	!	!	!	!	!
8F\	.	4cc\	16aa\LL	8F\L	.	8a\L	.	.	.	.
.	.	.	16gg\	.	.	.	.	.	.	.
8D\J	.	.	16ff\	8D\J	.	8f\J	.	.	.	.
.	.	.	16aa\JJ	.	.	.	.	.	.	.
=76	=76	=76	=76	=76	=76	=76	=76	=76	=76	=76
8E\L	.	4cc\	16gg\LL	8E\L	-le-	8g\L	-le-	2cc\	-lu-	.
.	.	.	16ff\	.	.	.	.	.	.	.
8D\	.	.	16gg\	8D\J	.	8f\J	.	.	.	.
.	.	.	16aa\JJ	.	.	.	.	.	.	.
8E\	.	4cc\	16gg\LL	8E\L	.	8g\L	.	.	.	.
.	.	.	16ff\	.	.	.	.	.	.	.
8C\J	.	.	16ee\	8C\J	.	8e\J	.	.	.	.
.	.	.	16gg\JJ	.	.	.	.	.	.	.
=77	=77	=77	=77	=77	=77	=77	=77	=77	=77	=77
8D\L	6|	4bn\	16ff\LL	8D\L	.	8f\L	-lu-	2bn\	-[[ia]]-	.
.	.	.	16ee\	.	.	.	.	.	.	.
8C\	.	.	16ff\	8C\J	.	8e\J	.	.	.	.
.	.	.	16gg\JJ	.	.	.	.	.	.	.
8D\	.	4b\	16ff\LL	8D/L	-lu-	8f\L	.	.	.	.
.	.	.	16ee\	.	.	.	.	.	.	.
8BBn\J	.	.	16dd\	8BBn/J	.	8d\J	.	.	.	.
.	.	.	16ff\JJ	.	.	.	.	.	.	.
!	!	!	!	!	!	!	!	!LO:LB:g=original	!	!
=78	=78	=78	=78	=78	=78	=78	=78	=78	=78	=78
8C\L	.	4cc\	4ee\	8C/	-ia	8e\	-ia	8cc\	-ia	.
8G\J	.	.	.	8G\	al-	8e\	al-	8cc\	al-	.
8GG/L	.	8r	8r	8GG/	-le-	8d\	-le-	8bn\	-le-	.
16AA/L	.	8g/	8dd\	16AA/LL	-lu-	8d\	-lu-	8b\	-lu-	.
16BBn/JJ	.	.	.	16BB-/JJ	.	.	.	.	.	.
!	!	!LO:LB:g=original	!	!	!	!	!	!	!	!
=79	=79	=79	=79	=79	=79	=79	=79	=79	=79	=79
4C/	.	8cc\L	8ee\L	4C/	-ia	4e\	-ia	8cc\	-ia	.
.	.	8ee\J	8gg\J	.	.	.	.	8r	.	.
4r	.	8g/L	8g/L	4r	.	4r	.	4r	.	.
.	.	8e/J	16a/L	.	.	.	.	.	.	.
.	.	.	16bn/JJ	.	.	.	.	.	.	.
!LO:PB:g=original	!	!	!LO:LB:g=original	!	!	!LO:LB:g=original	!	!	!	!
=80	=80	=80	=80	=80	=80	=80	=80	=80	=80	=80
8E\L	.	8e/L	8cc\L	8E\L	al-	4e\	al-	4cc\	al-	.
8G\J	.	8g/	8ee\	8F\J	.	.	.	.	.	.
!	!	!	!	!LO:LB:g=original	!	!	!	!	!	!
8GG/L	.	8g/	8dd\	8GG/L	-le-	8d\	-le-	8bn\	-le-	.
16AA/L	.	8g/J	8gg\J	16AA/L	-lu-	8d\	-lu-	8b\	-lu-	.
16BBn/JJ	.	.	.	16BBn/JJ	.	.	.	.	.	.
=81	=81	=81	=81	=81	=81	=81	=81	=81	=81	=81
8C\L	.	4g/	4ee\	4C/	-ia	8e\	-ia	4cc\	-ia	.
8B-X\	.	.	.	.	.	8r	.	.	.	.
8A\	.	4r	4r	4r	.	4r	.	4r	.	.
8G\J	.	.	.	.	.	.	.	.	.	.
=82	=82	=82	=82	=82	=82	=82	=82	=82	=82	=82
*	*	*	*	*	*	*	*ij	*	*ij	*
8F#X\L	.	16aa\LL	16ccc\LL	8F#X\L	al-	4a\	al-	4cc\	al-	.
.	.	16ff#X\	16dd\	.	.	.	.	.	.	.
8A\J	.	16aa\	16ccc\	8A\J	.	.	.	.	.	.
.	.	16ff#\JJ	16dd\	.	.	.	.	.	.	.
8D\L	.	16aa\LL	16ccc\	8D\	-le-	8a\	-le-	8cc\	-le-	.
.	.	16ff#\	16dd\	.	.	.	.	.	.	.
16E\L	.	16aa\	16ccc\	16E\LL	.	8a\	-lu-	8cc\	-lu-	.
16F#X\JJ	.	16ff#\JJ	16dd\JJ	16F#X\JJ	.	.	.	.	.	.
!	!	!	!	!	!	!	!	!LO:LB:g=original	!	!
=83	=83	=83	=83	=83	=83	=83	=83	=83	=83	=83
8G\L	-_	16gg\LL	16bb-\LL	8G\L	-lu-	4g\	-ia	4b-X\	-ia	.
*	*	*	*	*	*	*	*	*	*Xij	*
.	.	16b-X\	16dd\	.	.	.	.	.	.	.
8A\	x	16gg\	16bb-\	8A\J	.	.	.	.	.	.
.	.	16b-\JJ	16dd\JJ	.	.	.	.	.	.	.
8G\	.	16gg\LL	16bb-\LL	8G\L	-ia	4r	.	4r	.	.
.	.	16b-\	16dd\	.	.	.	.	.	.	.
8F\J	.	16gg\	16bb-\	8F#X\J	.	.	.	.	.	.
.	.	16b-\JJ	16dd\JJ	.	.	.	.	.	.	.
=84	=84	=84	=84	=84	=84	=84	=84	=84	=84	=84
8E\L	.	16gg\LL	16bb-\LL	8E\L	al-	4g\	al-	4b-\	al-	.
.	.	16ee\	16cc\	.	.	.	.	.	.	.
8G\J	.	16gg\	16bb-\	8G\J	.	.	.	.	.	.
.	.	16ee\JJ	16cc\JJ	.	.	.	.	.	.	.
8C\L	.	16gg\LL	16bb-\LL	8C/	-le-	8g\	-le-	8b-\	-le-	.
.	.	16ee\	16cc\	.	.	.	.	.	.	.
16D\L	.	16gg\	16bb-\	16D\LL	-lu-	8g\	-lu-	8b-\	-lu-	.
16E\JJ	.	16ee\JJ	16cc\JJ	16E\JJ	.	.	.	.	.	.
!	!	!LO:LB:g=original	!LO:PB:g=original	!LO:LB:g=original	!	!	!	!	!	!
=85	=85	=85	=85	=85	=85	=85	=85	=85	=85	=85
8F\L	.	16ff\LL	16aa\LL	8F\L	-ia	4f\	-ia	4a\	-ia	.
.	.	16cc\	16cc\	.	.	.	.	.	.	.
8G\	.	16ff\	16aa\	8G\J	.	.	.	.	.	.
.	.	16cc\JJ	16cc\JJ	.	.	.	.	.	.	.
8F\	.	16ff\LL	16aa\LL	8F\L	.	4r	.	4r	.	.
.	.	16a\	16cc\	.	.	.	.	.	.	.
8E\J	.	16ff\	16aa\	8E\J	.	.	.	.	.	.
.	.	16a\JJ	16cc\JJ	.	.	.	.	.	.	.
!	!	!	!	!	!	!LO:LB:g=original	!	!	!	!
=86	=86	=86	=86	=86	=86	=86	=86	=86	=86	=86
*	*	*	*	*	*	*	*	*	*ij	*
8D\L	.	16ff\LL	16aa\LL	8D\L	al-	4f\	al-	4a\	al-	.
.	.	16dd\	16b-\	.	.	.	.	.	.	.
8F\J	.	16ff\	16aa\	8F\J	.	.	.	.	.	.
.	.	16dd\JJ	16b-\JJ	.	.	.	.	.	.	.
8BB-X/L	.	16ff\LL	16aa\LL	8BB-/	-le-	8f\	-le-	8a\	-le-	.
.	.	16dd\	16b-\	.	.	.	.	.	.	.
16C/L	.	16ff\	16aa\	16C/LL	-lu-	8f\	-lu-	8a\	-lu-	.
16D/JJ	.	16dd\JJ	16b-\JJ	16D/JJ	.	.	.	.	.	.
=87	=87	=87	=87	=87	=87	=87	=87	=87	=87	=87
8E\L	.	16ee\LL	16gg\LL	8E\L	-ia	8e\	-ia	4g\	-ia	.
*	*	*	*	*	*	*	*Xij	*	*Xij	*
.	.	16g\	16b-\	.	.	.	.	.	.	.
8F\	.	16ee\	16gg\	8F\J	.	8r	.	.	.	.
.	.	16g\JJ	16b-\JJ	.	.	.	.	.	.	.
8E\	.	16ee\LL	16gg\LL	8E\L	al-	4r	.	4r	.	.
.	.	16g\	16b-\	.	.	.	.	.	.	.
8D\J	.	16ee\	16gg\	8D\J	.	.	.	.	.	.
.	.	16g\JJ	16b-\JJ	.	.	.	.	.	.	.
=88	=88	=88	=88	=88	=88	=88	=88	=88	=88	=88
8C#X/L	.	16ee\LL	16gg\LL	8C\L	-le-	4e\	al-	4g\	al-	.
.	.	16cc#X\	16a\	.	.	.	.	.	.	.
8D/J	.	16ee\	16gg\	8E\J	.	.	.	.	.	.
.	.	16cc#\JJ	16a\JJ	.	.	.	.	.	.	.
!LO:LB:g=original	!	!	!	!	!	!	!	!	!	!
8AA/L	.	16ee\LL	16gg\LL	8AA/	.	8e\	-le-	8g\	-le-	.
.	.	16cc#\	16a\	.	.	.	.	.	.	.
16BB-/L	.	16ee\	16gg\	16BB-/LL	-lu-	8e\	-lu-	8g\	-lu-	.
16C#X/JJ	.	16cc#\JJ	16a\JJ	16C/JJ	.	.	.	.	.	.
!	!	!	!	!	!	!	!	!LO:LB:g=original	!	!
=89	=89	=89	=89	=89	=89	=89	=89	=89	=89	=89
4D\	.	8dd\L	8ff\L	4D\	-ia	4d\	-ia	4f/	-ia	.
.	.	8ff\	8aa\J	.	.	.	.	.	.	.
4r	.	8a\	8a\L	4r	.	4r	.	4r	.	.
.	.	8g\J	16bn\L	.	.	.	.	.	.	.
.	.	.	16cc#X\JJ	.	.	.	.	.	.	.
!	!	!LO:LB:g=original	!LO:LB:g=original	!LO:LB:g=original	!	!	!	!	!	!
=90	=90	=90	=90	=90	=90	=90	=90	=90	=90	=90
8F\L	.	4f/	4dd\	8F\L	al-	8r	.	4dd\	al-	.
8A\J	.	.	.	8A\J	.	8f\	al-	.	.	.
8AA/L	.	8r	8r	8AA/	-le-	8e\	-le-	8cc#X\	-le-	.
!	!	!	!	!	!	!LO:SIC:v:s=8e\	!	!	!	!
16BB-/L	.	8a/	8ee\	16BBn/LL	-lu-	8f\	-lu-	8cc#\	-lu-	.
16C#X/JJ	.	.	.	16C#X/JJ	.	.	.	.	.	.
!	!	!	!	!	!	!LO:LB:g=original	!	!	!	!
=91	=91	=91	=91	=91	=91	=91	=91	=91	=91	=91
!LO:TX:t=P:problem=mixed beam	!	!	!	!	!	!	!	!	!	!
8D\L	.	8dd\L	8ff\L	8D\L	-[[ia]]-	8f\	-ia	8dd\	-ia	.
8G\	.	8ff\J	8aa\J	8G\J	.	8g\	al-	8ee\	al-	.
8A\	.	8a/L	8a\L	8A\	.	8e\	-le-	8cc#X\	-le-	.
8AA/J	.	8g/J	16b-\L	8AA/	.	8g\	-lu-	8cc#\	-lu-	.
.	.	.	16cc#X\JJ	.	.	.	.	.	.	.
=92	=92	=92	=92	=92	=92	=92	=92	=92	=92	=92
4D\	.	8f/L	8dd\L	4D\	-ia	4f\	-ia	4dd\	-ia	.
.	.	8b-/	8dd\	.	.	.	.	.	.	.
4r	.	8a/	8ccn\	4r	.	4r	.	4r	.	.
.	.	8g/J	8b-\J	.	.	.	.	.	.	.
=93	=93	=93	=93	=93	=93	=93	=93	=93	=93	=93
1r	.	8f/L	8a/L	1r	.	1r	.	8ccn\L	al-	.
.	.	8f/	8a/	.	.	.	.	8ee-X\J	.	.
.	.	8f/	8a/	.	.	.	.	8a\	-le-	.
.	.	8f/J	8a/J	.	.	.	.	16b-\LL	-lu-	.
.	.	.	.	.	.	.	.	16cc\JJ	.	.
!	!	!	!	!	!	!	!	!LO:LB:g=original	!	!
=94	=94	=94	=94	=94	=94	=94	=94	=94	=94	=94
.	.	8f/L	8b-\L	.	.	.	.	8dd\L	-ia	.
.	.	8f/	8dd\	.	.	.	.	8b-\J	.	.
.	.	8f/	8cc\	.	.	.	.	8a\L	al-	.
.	.	8f/J	8dd\J	.	.	.	.	8b-\J	.	.
=95	=95	=95	=95	=95	=95	=95	=95	=95	=95	=95
8A\L	.	8a\L	16cc\LL	8A\L	al-	4f\	al-	8cc\L	-le-	.
.	.	.	16ff\	.	.	.	.	.	.	.
8c\J	.	16cc\L	16aa\	8c\J	.	.	.	8ee-X\J	.	.
.	.	16a\JJ	16cc\JJ	.	.	.	.	.	.	.
8F\L	.	16cc\LL	16aa\LL	8F\	-le-	8f\	-le-	8a\	.	.
.	.	16a\	16cc\	.	.	.	.	.	.	.
16G\L	.	16cc\	16aa\	16G\LL	-lu-	8f\	-lu-	16b-\LL	-lu-	.
16A\JJ	.	16a\JJ	16cc\JJ	16A\JJ	.	.	.	16cc\JJ	.	.
!	!	!	!LO:LB:g=original	!LO:LB:g=original	!	!	!	!	!	!
=96	=96	=96	=96	=96	=96	=96	=96	=96	=96	=96
!	!	!LO:TX:t=P:problem=mixed beam	!LO:TX:t=P:problem=mixed beam	!	!	!	!	!	!	!
8B-\L|	.	8dd\L	8bb-\L	4B-\	-ia	4f\	-ia	4dd\	-ia	.
8F\J|	.	8f/	8f/	.	.	.	.	.	.	.
8D\L|	.	8d/	8d/	4r	.	4r	.	4r	.	.
8BB-\J|	.	8B-/J	8B-/J	.	.	.	.	.	.	.
!	!	!LO:LB:g=original	!	!	!	!	!	!	!	!
=97	=97	=97	=97	=97	=97	=97	=97	=97	=97	=97
1r	.	8g/L	8bn\L	1r	.	1r	.	8dd\L	al-	.
.	.	8g/	8b\	.	.	.	.	8ff\J	.	.
.	.	8g/	8b\	.	.	.	.	8bn\	-le-	.
.	.	8g/J	8b\J	.	.	.	.	16cc\LL	-lu-	.
.	.	.	.	.	.	.	.	16dd\JJ	.	.
=98	=98	=98	=98	=98	=98	=98	=98	=98	=98	=98
.	.	8g/L	8cc\L	.	.	.	.	8ee\L	-ia	.
.	.	8g/	8ee\	.	.	.	.	8cc\J	.	.
.	.	8g/	8dd\	.	.	.	.	8bn\L	al-	.
.	.	8g/J	8ee\J	.	.	.	.	8cc\J	.	.
!	!	!	!	!	!	!LO:LB:g=original	!	!LO:LB:g=original	!	!
=99	=99	=99	=99	=99	=99	=99	=99	=99	=99	=99
*	*	*	*	*	*	*	*ij	*	*	*
8Bn\L	.	8bn\L	16dd\LL	8Bn\L	al-	4g\	al-	8dd\L	-le-	.
.	.	.	16gg\	.	.	.	.	.	.	.
8d\J	.	16dd\L	16bbn\	8d\J	.	.	.	8ff\J	.	.
.	.	16cc\JJ	16dd\JJ	.	.	.	.	.	.	.
8G\L	.	16dd\LL	16bb\LL	8G\	-le-	8g\	-le-	8bn\	.	.
.	.	16b\	16dd\	.	.	.	.	.	.	.
16A\L	.	16dd\	16bb\	16A\LL	-lu-	8g\	-lu-	16cc\LL	-lu-	.
16Bn\JJ	.	16b\JJ	16dd\JJ	16Bn\JJ	.	.	.	16dd\JJ	.	.
=100	=100	=100	=100	=100	=100	=100	=100	=100	=100	=100
8c\L|	.	8ee\L	8ccc\L	4c\	-ia	4g\	-ia	4ee\	-ia	.
*	*	*	*	*	*	*	*Xij	*	*	*
8G\J|	.	8g\J	8cc\J	.	.	.	.	.	.	.
8E\L|	.	8e/L	8g/L	4r	.	4r	.	4r	.	.
8C\J|	.	8c/J	8c/J	.	.	.	.	.	.	.
=101	=101	=101	=101	=101	=101	=101	=101	=101	=101	=101
*	*	*	*	*	*	*2\right	*	*	*	*
8E\L	.	16ee\LL	8gg\L	8E\L	al-	2g\	al-	2cc\	al-	.
.	.	16cc\	.	.	.	.	.	.	.	.
8G\J	.	16ee\	8bb-\J	8G\J	.	.	.	.	.	.
.	.	16cc\JJ	.	.	.	.	.	.	.	.
8C\L	.	16ee\LL	8ee\L	8C/	-le-	.	.	.	.	.
.	.	16cc\	.	.	.	.	.	.	.	.
16D\L	.	16ee\	16ff\L	16D\LL	-lu-	.	.	.	.	.
16E\JJ	.	16cc\JJ	16gg\JJ	16E\JJ	.	.	.	.	.	.
!	!	!	!LO:LB:g=original	!	!	!	!	!	!	!
=102	=102	=102	=102	=102	=102	=102	=102	=102	=102	=102
8F\L	.	16ff\LL	8aa\L	8F\L	-ia	2a\	-le-	2cc\	-le-	.
.	.	16cc\	.	.	.	.	.	.	.	.
8A\J	.	16ff\	8ccc\J	8A\J	.	.	.	.	.	.
.	.	16cc\JJ	.	.	.	.	.	.	.	.
!	!	!LO:LB:g=original	!	!	!	!	!	!	!	!
8C\L	.	16ff\LL	8ff\L	8C\L	.	.	.	.	.	.
.	.	16cc\	.	.	.	.	.	.	.	.
8F\J	.	16ff\	16gg\L	8F\J	.	.	.	.	.	.
.	.	16cc\JJ	16aa\JJ	.	.	.	.	.	.	.
!	!	!	!	!LO:LB:g=original	!	!	!	!	!	!
=103	=103	=103	=103	=103	=103	=103	=103	=103	=103	=103
8E\L	.	16ee\LL	8gg\L	8E\L	al-	2g\	-lu-	2cc\	-lu-	.
.	.	16cc\	.	.	.	.	.	.	.	.
8G\J	.	16ee\	8bb-\J	8G\J	.	.	.	.	.	.
.	.	16cc\JJ	.	.	.	.	.	.	.	.
8C\L	.	16ee\LL	8ee\L	8C/	-le-	.	.	.	.	.
.	.	16cc\	.	.	.	.	.	.	.	.
16D\L	.	16ee\	16ff\L	16D\LL	.	.	.	.	.	.
16E\JJ	.	16cc\JJ	16gg\JJ	16E\JJ	.	.	.	.	.	.
=104	=104	=104	=104	=104	=104	=104	=104	=104	=104	=104
8F\L	.	16ff\LL	8aa\L	8F\L	-lu-	2a\	-ia	2cc\	ia	.
.	.	16cc\	.	.	.	.	.	.	.	.
8A\J	.	16ff\	8ccc\J	8A\J	.	.	.	.	.	.
.	.	16cc\JJ	.	.	.	.	.	.	.	.
8C\L	.	16ff\LL	8ff\L	8C\L	-ia	.	.	.	.	.
.	.	16cc\	.	.	.	.	.	.	.	.
8F\J	.	16ff\	16gg\L	8F\J	.	.	.	.	.	.
.	.	16cc\JJ	16aa\JJ	.	.	.	.	.	.	.
!	!	!	!	!	!	!LO:PB:g=original	!	!	!	!
=105	=105	=105	=105	=105	=105	=105	=105	=105	=105	=105
*	*	*	*	*	*ij	*	*	*	*	*
8E\L	.	8gg\L	8gg\L	8E\L	al-	8g\L	al-	8cc\L	al-	.
8F\J	.	8aa\J	8aa\J	8G\J	.	8a\J	.	8ff\J	.	.
8BB-/L	.	8cc\L	8ee\L	8C/	-le-	8g\	-le-	8ee\	-le-	.
8C/J	.	8ee\J	8gg\J	16D\LL	-lu-	8g\	-lu-	8ee\	-lu-	.
.	.	.	.	16E\JJ	.	.	.	.	.	.
=106	=106	=106	=106	=106	=106	=106	=106	=106	=106	=106
4FF/	.	8ff\L	8ff\L	8F\L	-ia	4a\	-ia	4ff\	-ia	.
.	.	8aa\J	8ccc\J	8A\J	.	.	.	.	.	.
4r	.	8cc\L	8cc\L	8C\L	.	4r	.	4r	.	.
.	.	8b-\J	16dd\L	8F\J	.	.	.	.	.	.
.	.	.	16ee\JJ	.	.	.	.	.	.	.
!	!	!	!	!	!	!	!	!LO:PB:g=original	!	!
=107	=107	=107	=107	=107	=107	=107	=107	=107	=107	=107
*	*	*	*	*	*Xij	*	*ij	*	*	*
8A\L	.	4a/	4ff\	8E\L	al-	4f\	al-	4a\	al-	.
8c\J	.	.	.	8F\J	.	.	.	.	.	.
8C\L	7	8r	8r	8BB-/	-le-	8e\	-le-	8g\	-le-	.
16D\L	.	8cc\	8gg\	8C/	-lu-	8e\	-lu-	8g\	-lu-	.
16E\JJ	.	.	.	.	.	.	.	.	.	.
!LO:LB:g=original	!	!LO:LB:g=original	!LO:LB:g=original	!LO:LB:g=original	!	!	!	!	!	!
=108	=108	=108	=108	=108	=108	=108	=108	=108	=108	=108
4F\	.	8ff\L	8aa\L	4F\	-ia	4f\	-ia	4a\	-ia	.
*	*	*	*	*	*	*	*Xij	*	*	*
.	.	8aa\	8ccc\J	.	.	.	.	.	.	.
4r	.	8cc\	8cc\L	4r	.	4r	.	4r	.	.
.	.	8b-\J	16dd\L	.	.	.	.	.	.	.
.	.	.	16ee\JJ	.	.	.	.	.	.	.
=109	=109	=109	=109	=109	=109	=109	=109	=109	=109	=109
!	!	!	!LO:TX:t=P:problem=mixed beam	!	!	!	!	!	!	!
8A\L	.	8a/L	8ff\L	8A\L	al-	4a\	al-	4ff\	al-	.
8c\J	.	8f/	8a/	8c\J	.	.	.	.	.	.
8C\L	.	8g/	8b-/	8C\	-le-	8g\	-le-	8ee\	-le-	.
16D\L	.	8e/J	8g/J	16D\LL	-lu-	8g\	-lu-	8ee\	-lu-	.
16E\JJ	.	.	.	16E\JJ	.	.	.	.	.	.
=110	=110	=110	=110	=110	=110	=110	=110	=110	=110	=110
4F\	.	4f/	4f/	4F\	-ia	4a\	-ia	4ff\	-ia	.
4r	.	4r	4r	4r	.	4r	.	4r	.	.
==	==	==	==	==	==	==	==	==	==	==
*-	*-	*-	*-	*-	*-	*-	*-	*-	*-	*-
!!!system-decoration: [(s1,s2,s3)][(s4,s5)][(s6)]
!!!RDF**kern: < = below
!!!RDF**kern: > = above
!!!RDF**kern: | = vertical stroke
!!!ENC: Andrzej Gręziak
!!!END: 2020-01-04
!!!EED: Andrzej Borzym
!!!EEV: 2021-12-30
